assets/home-tab/Asset/Mobile Recharge.svg

<svg width="26" height="26" viewBox="0 0 26 26" fill="none" xmlns="http://www.w3.org/2000/svg">
<g clip-path="url(#clip0_195_491)">
<path fill-rule="evenodd" clip-rule="evenodd" d="M4.43902 7.20457C4.56086 3.84014 4.62177 2.15792 5.73219 1.07896C6.84261 0 8.55352 0 11.9754 0H13.9271C17.3611 0 19.0782 0 20.1873 1.07235C21.2964 2.14469 21.3667 3.85533 21.5075 7.2766C21.5961 9.43206 21.6667 11.5904 21.6667 13C21.6667 14.4096 21.5961 16.5679 21.5075 18.7234C21.3667 22.1447 21.2964 23.8553 20.1873 24.9277C19.0782 26 17.3611 26 13.9271 26H11.9996C8.56945 26 6.85439 26 5.74411 24.9217C4.63383 23.8435 4.57172 22.1524 4.44752 18.7704C4.3001 14.7565 4.29357 11.2211 4.43902 7.20457ZM6.64703 7.68962C6.69556 5.11014 6.71983 3.8204 7.55602 2.99353C8.3922 2.16667 9.69821 2.16667 12.3102 2.16667H13.8247C16.4204 2.16667 17.7183 2.16667 18.5536 2.98897C19.3889 3.81128 19.4187 5.08889 19.4782 7.64411C19.5284 9.79773 19.5302 11.8639 19.4808 14.0329C19.4227 16.5805 19.3937 17.8543 18.5583 18.6772C17.7228 19.5 16.4269 19.5 13.8351 19.5H12.312C9.69932 19.5 8.39296 19.5 7.55679 18.6732C6.72062 17.8465 6.69622 16.5561 6.64744 13.9753C6.60733 11.8535 6.60696 9.81993 6.64703 7.68962ZM11.992 21.6667C11.3983 21.6667 10.9171 22.1517 10.9171 22.75C10.9171 23.3483 11.3983 23.8333 11.992 23.8333H14.142C14.7357 23.8333 15.2169 23.3483 15.2169 22.75C15.2169 22.1517 14.7357 21.6667 14.142 21.6667H11.992Z" fill="#0066B4"/>
<path d="M12.083 8.53046L10.5769 10.8849C10.1578 11.54 9.94824 11.8675 10.084 12.1186C10.2198 12.3696 10.6065 12.3696 11.38 12.3696H11.4672C11.9228 12.3696 12.1506 12.3696 12.2896 12.5054C12.3064 12.5218 12.322 12.5395 12.3362 12.5582C12.454 12.713 12.4276 12.941 12.375 13.3972C12.2044 14.8736 12.1192 15.6119 12.42 15.7625C12.4533 15.7792 12.4885 15.7919 12.5248 15.8004C12.8521 15.8767 13.2517 15.252 14.0509 14.0027L15.5571 11.6483C15.9762 10.9932 16.1857 10.6656 16.0499 10.4146C15.9141 10.1636 15.5274 10.1636 14.754 10.1636H14.6668C14.2111 10.1636 13.9833 10.1636 13.8443 10.0278C13.8275 10.0114 13.812 9.99372 13.7977 9.97501C13.6799 9.82018 13.7063 9.59213 13.759 9.13602C13.9295 7.65954 14.0148 6.92129 13.714 6.77067C13.6806 6.75396 13.6454 6.74124 13.6091 6.73278C13.2818 6.65646 12.8822 7.28113 12.083 8.53046Z" fill="#0066B4"/>
</g>
<defs>
<clipPath id="clip0_195_491">
<rect width="26" height="26" fill="white"/>
</clipPath>
</defs>
</svg>

<svg xmlns="http://www.w3.org/2000/svg" width="26" height="26" fill="none" viewBox="0 0 26 26"><g fill="#0066b4" clip-path="url(#a)"><path fill-rule="evenodd" d="M4.439 7.205c.122-3.365.183-5.047 1.293-6.126S8.554 0 11.975 0h1.952c3.434 0 5.151 0 6.26 1.072 1.11 1.073 1.18 2.783 1.32 6.205.09 2.155.16 4.313.16 5.723s-.07 3.568-.16 5.723c-.14 3.422-.21 5.132-1.32 6.205C19.078 26 17.361 26 13.927 26H12c-3.43 0-5.146 0-6.256-1.078s-1.172-2.77-1.296-6.152a152 152 0 0 1-.009-11.565m2.208.485c.049-2.58.073-3.87.909-4.696.836-.827 2.142-.827 4.754-.827h1.515c2.595 0 3.893 0 4.729.822.835.822.865 2.1.924 4.655.05 2.154.052 4.22.003 6.389-.058 2.548-.087 3.821-.923 4.644-.835.823-2.131.823-4.723.823h-1.523c-2.613 0-3.919 0-4.755-.827-.836-.826-.86-2.117-.91-4.698-.04-2.121-.04-4.155 0-6.285m5.345 13.977a1.08 1.08 0 0 0-1.075 1.083 1.08 1.08 0 0 0 1.075 1.083h2.15a1.08 1.08 0 0 0 1.075-1.083 1.08 1.08 0 0 0-1.075-1.083z" clip-rule="evenodd"/><path d="m12.083 8.53-1.506 2.355c-.42.655-.629.982-.493 1.234.136.25.523.25 1.296.25h.087c.456 0 .684 0 .823.136l.046.053c.118.155.092.383.039.84-.17 1.476-.256 2.214.045 2.364q.05.026.105.038c.327.077.727-.548 1.526-1.797l1.506-2.355c.42-.655.629-.982.493-1.233s-.523-.251-1.296-.251h-.087c-.456 0-.684 0-.823-.136l-.046-.053c-.118-.155-.092-.383-.039-.839.17-1.476.256-2.215-.045-2.365a.5.5 0 0 0-.105-.038c-.327-.077-.727.548-1.526 1.797"/></g><defs><clipPath id="a"><path fill="#fff" d="M0 0h26v26H0z"/></clipPath></defs></svg>
